X:45
T: Wie ist doch die Falschheit so groá (Band 1), S. 139
N: P0819
O: Lothringen
S: PINCK, Louis: Verklingende Weisen, Bd 1, Metz 1928]
R: Soldatenlied, Klage]
M: 3/4
L: 1/8
K: F
C2 | F2F2G2 | A2A2FG | A2A2B2 | c2z2
AB | c2ccfd | c2c
BBB | c2c2B2 | A4

